src/assets/tokens/ANGLE-optimism.svg

<svg width="105" height="105" viewBox="0 0 105 105" fill="none" xmlns="http://www.w3.org/2000/svg">
<circle cx="52.7369" cy="52.7463" r="52.1632" fill="#FAF1E7"/>
<path d="M83.6838 64.743L52.7689 34.0115L21.854 64.743L37.3117 80.1089L52.7691 64.7432L68.2264 80.1087L83.6838 64.743Z" fill="white"/>
<path d="M52.7689 64.7425L68.2264 80.1103L71.3178 72.5007L52.7689 54.0618L52.7689 64.7425Z" fill="#FAF1E7" stroke="#1F2333" stroke-width="0.921159" stroke-linejoin="round"/>
<path d="M83.6859 64.7395L68.2267 80.1056L71.3181 72.5007L89.867 54.0618L83.6859 64.7395Z" fill="#1F2333" stroke="#1F2333" stroke-width="0.921159" stroke-linejoin="round"/>
<path d="M52.7692 64.7425L37.3116 80.1103L34.2203 72.5007L52.7692 54.0618L52.7692 64.7425Z" fill="#1F2333" stroke="#1F2333" stroke-width="0.921159" stroke-linejoin="round"/>
<path d="M21.8521 64.7395L37.3113 80.1056L34.22 72.5007L15.671 54.0618L21.8521 64.7395Z" fill="#FAF1E7" stroke="#1F2333" stroke-width="0.921159" stroke-linejoin="round"/>
<path d="M89.8668 54.0604L52.7689 17.1826L15.671 54.0604L34.2202 72.4995L52.7691 54.0606L71.3178 72.4993L89.8668 54.0604Z" fill="url(#paint0_linear_6735_295816)" stroke="#1F2333" stroke-width="0.921159" stroke-linejoin="round"/>
<g clip-path="url(#clip0_6735_295816)">
<path d="M52.7369 44.142C63.4289 44.142 72.0965 35.4745 72.0965 24.7825C72.0965 14.0905 63.4289 5.42297 52.7369 5.42297C42.045 5.42297 33.3774 14.0905 33.3774 24.7825C33.3774 35.4745 42.045 44.142 52.7369 44.142Z" fill="#FF0420"/>
<path d="M47.0943 29.9279C45.9415 29.9279 44.9971 29.6566 44.2609 29.1142C43.5343 28.562 43.1711 27.7774 43.1711 26.7603C43.1711 26.5472 43.1953 26.2856 43.2437 25.9756C43.3697 25.2782 43.5489 24.4402 43.7814 23.4619C44.4401 20.798 46.1401 19.4661 48.8815 19.4661C49.6274 19.4661 50.2958 19.592 50.8867 19.8438C51.4776 20.086 51.9426 20.4541 52.2816 20.9482C52.6206 21.4325 52.7902 22.0137 52.7902 22.6918C52.7902 22.8952 52.766 23.1519 52.7175 23.4619C52.5722 24.324 52.3978 25.1619 52.1944 25.9756C51.8554 27.3027 51.2693 28.2956 50.4363 28.9543C49.6032 29.6033 48.4892 29.9279 47.0943 29.9279ZM47.2977 27.8355C47.8402 27.8355 48.3003 27.6757 48.6781 27.356C49.0656 27.0363 49.3417 26.5472 49.5063 25.8885C49.7291 24.9779 49.8987 24.1835 50.0149 23.5055C50.0536 23.302 50.073 23.0938 50.073 22.8806C50.073 21.9991 49.6129 21.5584 48.6927 21.5584C48.1501 21.5584 47.6852 21.7182 47.2977 22.0379C46.9199 22.3576 46.6487 22.8468 46.484 23.5055C46.3096 24.1545 46.1353 24.9488 45.9609 25.8885C45.9221 26.0821 45.9028 26.2856 45.9028 26.4987C45.9028 27.3899 46.3678 27.8355 47.2977 27.8355Z" fill="white"/>
<path d="M53.4574 29.7826C53.3508 29.7826 53.2684 29.7487 53.2103 29.6808C53.1619 29.6033 53.1474 29.5162 53.1668 29.4193L55.1719 19.9746C55.1913 19.868 55.2446 19.7808 55.3318 19.713C55.419 19.6452 55.511 19.6113 55.6078 19.6113H59.4729C60.5482 19.6113 61.4103 19.8341 62.0593 20.2797C62.718 20.7254 63.0474 21.3695 63.0474 22.2122C63.0474 22.4544 63.0184 22.7063 62.9602 22.9678C62.718 24.0818 62.2289 24.9052 61.4927 25.438C60.7661 25.9708 59.7684 26.2372 58.4994 26.2372H56.5378L55.8694 29.4193C55.85 29.5259 55.7967 29.613 55.7096 29.6808C55.6224 29.7487 55.5303 29.7826 55.4335 29.7826H53.4574ZM58.6011 24.232C59.0079 24.232 59.3615 24.1206 59.6618 23.8978C59.9718 23.675 60.1752 23.3553 60.2721 22.9388C60.3011 22.7741 60.3157 22.6288 60.3157 22.5029C60.3157 22.2219 60.2334 22.0088 60.0687 21.8635C59.9039 21.7085 59.6231 21.6311 59.2259 21.6311H57.4822L56.9301 24.232H58.6011Z" fill="white"/>
</g>
<defs>
<linearGradient id="paint0_linear_6735_295816" x1="89.8662" y1="44.8407" x2="15.671" y2="44.8407" gradientUnits="userSpaceOnUse">
<stop stop-color="#FAF1E7"/>
<stop offset="0.26021" stop-color="#FDCEAA"/>
<stop offset="0.61201" stop-color="#F4837D"/>
<stop offset="0.9999" stop-color="#B9AAFD"/>
</linearGradient>
<clipPath id="clip0_6735_295816">
<rect width="38.7191" height="38.7191" fill="white" transform="translate(33.3774 5.42297)"/>
</clipPath>
</defs>
</svg>

<svg fill="none" height="105" width="105" xmlns="http://www.w3.org/2000/svg"><linearGradient id="a" gradientUnits="userSpaceOnUse" x1="89.866" x2="15.671" y1="44.841" y2="44.841"><stop offset="0" stop-color="#faf1e7"/><stop offset=".26" stop-color="#fdceaa"/><stop offset=".612" stop-color="#f4837d"/><stop offset="1" stop-color="#b9aafd"/></linearGradient><clipPath id="b"><path d="M0 0h38.719v38.719H0z" transform="translate(33.377 5.423)"/></clipPath><circle cx="52.737" cy="52.746" fill="#faf1e7" r="52.163"/><path d="M83.684 64.743L52.769 34.012 21.854 64.743l15.458 15.366 15.457-15.366L68.226 80.11l15.458-15.366z" fill="#fff"/><g stroke="#1f2333" stroke-linejoin="round" stroke-width=".921"><path d="M52.769 64.743L68.226 80.11l3.092-7.61-18.55-18.438v10.68z" fill="#faf1e7"/><path d="M83.686 64.74l-15.46 15.366 3.092-7.605 18.549-18.44zm-30.917.003L37.312 80.11 34.22 72.5l18.55-18.438v10.68z" fill="#1f2333"/><path d="M21.852 64.74l15.46 15.366L34.22 72.5 15.671 54.06l6.181 10.679z" fill="#faf1e7"/><path d="M89.867 54.06L52.769 17.183 15.67 54.06 34.22 72.5l18.548-18.44 18.55 18.44z" fill="url(#a)"/></g><g clip-path="url(#b)"><path d="M52.737 44.142c10.692 0 19.36-8.668 19.36-19.36 0-10.691-8.668-19.359-19.36-19.359s-19.36 8.668-19.36 19.36c0 10.691 8.668 19.359 19.36 19.359z" fill="#ff0420"/><path d="M47.094 29.928c-1.153 0-2.097-.271-2.833-.814-.727-.552-1.09-1.337-1.09-2.354 0-.213.024-.474.073-.784.126-.698.305-1.536.537-2.514.66-2.664 2.36-3.996 5.1-3.996.746 0 1.415.126 2.006.378a3.05 3.05 0 0 1 1.395 1.104c.339.485.508 1.066.508 1.744 0 .203-.024.46-.072.77-.146.862-.32 1.7-.524 2.514-.339 1.327-.925 2.32-1.758 2.978-.833.65-1.947.974-3.342.974zm.204-2.093c.542 0 1.002-.16 1.38-.479.388-.32.664-.809.828-1.468.223-.91.393-1.705.509-2.383a3.3 3.3 0 0 0 .058-.624c0-.882-.46-1.323-1.38-1.323-.543 0-1.008.16-1.395.48-.378.32-.65.809-.814 1.468a31.602 31.602 0 0 0-.523 2.383 3.1 3.1 0 0 0-.058.61c0 .89.465 1.337 1.395 1.337zm6.16 1.948a.307.307 0 0 1-.248-.102.347.347 0 0 1-.043-.262l2.005-9.444a.416.416 0 0 1 .16-.262.443.443 0 0 1 .276-.102h3.865c1.075 0 1.937.223 2.586.669.659.445.988 1.09.988 1.932 0 .242-.029.494-.087.756-.242 1.114-.731 1.937-1.467 2.47-.727.533-1.725.8-2.994.8h-1.961l-.669 3.181a.416.416 0 0 1-.16.262.443.443 0 0 1-.276.102h-1.976zm5.143-5.551c.407 0 .76-.111 1.06-.334.31-.223.514-.543.611-.96.03-.164.044-.31.044-.435 0-.281-.083-.494-.247-.64-.165-.154-.446-.232-.843-.232h-1.744l-.552 2.601z" fill="#fff"/></g></svg>
